X: 625
T: Across The Hill
R: jig
M: 6/8
K: Dmixolydian
|:DEG GED|AEG GED|DEG GED|AcG GED|
DEG GED|AEG GED|DEG GED|BcG GED||
|:Ad(c c)dA|AB(c c)dA|AdB cde|dcA GcA|
Adc cdA|ABc cde|dcd cAG|1 AcA GcA:|2 AcA GEG||
|:ABc edg-|gBd GBD|ABc edB|AGA BGD|
ABc edg-|gBd eg(a|a)gc e2d|1 Gcc EGA:|2 Gcc EGD||

